public/assets/Noti.svg

<svg width="28" height="28" viewBox="0 0 28 28" fill="none" xmlns="http://www.w3.org/2000/svg">
<path d="M17.5001 19.8333H23.3334L21.6943 18.1942C21.2498 17.7497 21.0001 17.1468 21.0001 16.5182V12.8333C21.0001 9.78549 19.0522 7.1926 16.3334 6.23165V5.83333C16.3334 4.54467 15.2887 3.5 14.0001 3.5C12.7114 3.5 11.6667 4.54467 11.6667 5.83333V6.23165C8.94797 7.1926 7.00008 9.78549 7.00008 12.8333V16.5182C7.00008 17.1468 6.75035 17.7497 6.30584 18.1942L4.66675 19.8333H10.5001M17.5001 19.8333V21C17.5001 22.933 15.9331 24.5 14.0001 24.5C12.0671 24.5 10.5001 22.933 10.5001 21V19.8333M17.5001 19.8333H10.5001" stroke="#525252" stroke-width="2" stroke-linecap="round" stroke-linejoin="round"/>
<circle cx="23" cy="4" r="2.5" fill="#EF4444"/>
</svg>

<svg xmlns="http://www.w3.org/2000/svg" width="28" height="28" fill="none"><path stroke="#525252" stroke-linecap="round" stroke-linejoin="round" stroke-width="2" d="M17.5 19.833h5.833l-1.639-1.639A2.37 2.37 0 0 1 21 16.518v-3.685a7.003 7.003 0 0 0-4.667-6.601v-.399a2.333 2.333 0 0 0-4.666 0v.399A7.003 7.003 0 0 0 7 12.833v3.685a2.37 2.37 0 0 1-.694 1.676l-1.64 1.64H10.5m7 0V21a3.5 3.5 0 1 1-7 0v-1.167m7 0h-7"/><circle cx="23" cy="4" r="2.5" fill="#EF4444"/></svg>
